X:1
T:Oh, to Be Nearer
T:William James Kirkpatrick
T:Oh, to Be Nearer
T:Public Domain
T:Public Domain
C:William James Kirkpatrick
Z:Public Domain
%%score ( 1 2 ) ( 3 4 )
L:1/8
M:6/8
K:Ab
V:1 treble 
V:2 treble 
V:3 bass 
V:4 bass 
V:1
 [CE][CE][CE] [CE]2 [CE] | [DF]3 [FA]2 [DF] | EEE [EB]2 [Ec] | [EB]6 | [Ec][Ec][Ec] [Ec]2 [EB] | %5
w: 1.~Oh, to be near- er,|near- er, The|feet of my Lord and|en-|joy His pre- sence, And|
w: 2.~Oh, to be near- er,|near- er Com-|mun- ing with Him in|be|strong- er, strong- er, My|
w: 3.~Oh, to be near- er,|near- er My|Re- fuge, my Hope, my|be|al- ways rea- dy To|
w: 4.~Oh, for a faith still|bright- er, And|clear- er from day to|be|more like Je- sus, In|
 [EA]3 [DF]2 [DF] | [CE][CE][CE] [DB]2 [Ec] | [CA]6 ||"^Refrain" [Fd][Fd][Fd] [Fd]3 | %9
w: on- ly His|love to sing! * *|||
w: bur- den of|toil to bear! * *|||
w: an- swer my|Sav- ior’s call! * *|||
w: all that I|do and say! * *|||
 [Ec][Ec][Ec] [Ec]3 | [EB][EB][EB] [Ge]2 [Gd] | [Ec]3- [Ec]2 (c/d/) | [Ae][Ae][Ae] [Ae]2 [Ec] | %13
w: ||||
w: ||||
w: ||||
w: ||||
 [EA][FA][_GA] [FA]2 [DF] | [CE][CE][CE] [DB]2 [Ec] | [CA]6 |] %16
w: |||
w: |||
w: |||
w: |||
V:2
 x6 | x6 | EEE x3 | x6 | x6 | x6 | x6 | x6 || x6 | x6 | x6 | x5 A | x6 | x6 | x6 | x6 |] %16
w: ||King! Oh, to||||||||||||||
w: ||prayer! Oh, to||||||||||||||
w: ||All! Oh, to||||||||||||||
w: ||day! Oh, to||||||||||||||
V:3
 [A,,A,][A,,A,][A,,A,] [A,,A,]2 [A,,A,] | [D,A,]3 [D,A,]2 [D,A,] | %2
w: ~ ~ ~ ~ ~|~ ~ ~|
 [C,A,][C,A,][C,A,] [B,,G,]2 [A,,A,] | [E,G,]6 | [A,,A,][A,,A,][A,,A,] [A,,A,]2 [B,,G,] | %5
w: ~ ~ ~ ~ ~|~|~ ~ ~ ~ ~|
 [C,A,]3 [D,A,]2 [D,A,] | [E,A,][E,A,][E,A,] [E,G,]2 [E,G,] | [A,,A,]6 || %8
w: ~ ~ ~|~ ~ ~ ~ ~|~|
 [D,A,][D,A,][D,A,] [D,A,]3 | [A,,A,][A,,A,][A,,A,] [A,,A,]3 | [E,G,][E,G,][E,G,] [E,B,]2 [E,B,] | %11
w: On- ly His love,|on- ly His love,|Ev- er my song shall|
 [A,,A,]3- [A,,A,]2 (A,/B,/) | [A,C][A,C][A,C] [A,C]2 A, | [C,A,][C,A,][C,A,] [D,A,]2 [D,A,] | %14
w: be: * His *|der- ful love, pre- pa-|ring a- bove A robe|
 [E,A,][E,A,][E,A,] [E,G,]2 [E,G,] | [A,,A,]6 |] %16
w: and a crown for me.||
V:4
 x6 | x6 | x6 | x6 | x6 | x6 | x6 | x6 || x6 | x6 | x6 | x5 A, | x6 | x6 | x6 | x6 |] %16
w: |||||||||||won-|||||

